X: 40084
T: Thunder Bay
R: jig
M: 6/8
K: Amajor
[M:6/8]E2A|:c2c cBA|E2C A,2A,|A,CE A2A|F3- F2F|
EGB EGB|EGB g2f|1 fec ecA|E3- EAB:|2 fec dBG|A3||
c2d|:ef/g/a c2e|AcA E2C|A,2A, A,B,C|D3 D2E|
EGB dcB|BAB g2f|1 e2e efe|c3- ccd:|2 e2e efg|a3||

